X: 1
T: Richard Dwyer's
R: reel
M: 4/4
L: 1/8
K: Ador
A2eA (3B^cd ec|dGBG AFGF|EA=cA (3B^cd gf|eaag a3g|
~e3d =cA~A2|Bgd=c BdcB|AE=cE dEcd|1 e=cBG EAAG:|2 e=cBG EA~A2||
|:a2ea =c'afa|g2dg bgdg|aged (3B^cd ed|(3=cBA BG EA~A2|
a3b =c'afa|~g3a agdg|aged (3B^cd ed|1 (3=cBA BG EA~A2:|2 (3=cBA BG EAAG||
"version 2"
A2EA cdec|d2BG AFGF|EAcA Bdgf|eaae ~a3g|
~e3d cAaf|gedc BdcB|AEcE d2cd|ecBG EAAG|
A3B c2ec|dGBG AFGF|EAcA Bdgf|eaae ~a3g|
~e3d cAaf|gedc BdcB|AEcE d2cd|ecBG EA~A2||
|:a2ea baeb|g2dg bgdg|aged c2ed|cABG EA~A2|
a2eb eaeb|gedc BcdB|ABcd e2ae|1 gedB cA~A2:|2 gedB cAAG||


Tune 1131	Setting 28087

